X:1708
T:The First Of May
M:2/4
L:1/16
N:"collected by F. O'Neill"
B:O'Neill's 1708
R:Hornpipe
Z:"Transcribed by Bob Safranek, rjs@gsp.org"
K:A
   (AG) | EAAB cBcA | dcde f2(ef) | gedc dfed | cAGF G2G2 |
          EAAB cBcA | dcde f2(ef) | gedc dfec | A2AA A2  :|
|: (fg) | a2af g2ge | fgfd e2(ed) | cdef gfed | cAGF G2G2 |
          EAAB cBcA | dcde f2(ef) | gedc dfec | A2AA A2  :|


